X:1
T:Ich weiss dass mein Erlöser lebt
T:Joachim a Burck
T:Source : Breitkopf & Härtel---Leipzich---R.Eitner---1898. First print : 20 Deutsche Liedlein zu 4 Stimmen---Erfurt---G.Baumann---1575. Editor : André Vierendeels (05/11/17). Notes : Original clefs : C1, C3, C3, F4 Editorial accidentals above the staff Text by Ludovico Helmbold (Christeliche Reimen)
T:Ich weiss dass mein Erlöser lebt
T:©
T:©
T:©
T:©
C:Joachim a Burck
Z:©
%%score [ 1 2 3 4 ]
L:1/8
Q:1/4=120
M:4/4
K:C
V:1 treble nm="Soprano" snm="S"
V:2 treble nm="Alto" snm="A"
V:3 treble-8 nm="Tenor" snm="T"
V:4 bass nm="Bass" snm="B"
V:1
"^1)" A4 A4 | G2 F4 G2 | A2 B2 c4 | c2 c4 B2 | A2 A2 G4 | G4 z2 G2 | G2 G2 G2 F2 | E8 | E4 z2 A2 | %9
w: Ich weiss|dass mein Er-|lö- ser lebt,|ob ich schon|nie auff Er-|den, hab|Sünd ge- than und|ster-|be, all'|
w: Er wird|her- nach mich|aus der Erdt|lieb- lich wie-|der auf- wec-|ken. Mich|sol kein Feind mehr|schre-|cken, Hell,|
 A4 G2 F2- | F2 G2 A2 B2 | c4 c2 c2- | c2 B2 A2 A2 | G4 G4 | z2 G2 G2 G2 | G4 F4 | E8 | E4 z2 A2 | %18
w: mei- ne Fein-|* de sind er-|legt, nicht ei-|* net kan mir|scha- den,|so grosz ist|Got- tes|Gna-|de, wel-|
w: Teuf- fel, Todt|_ o- der was|mehr ent- ge-|* gen ist der|Freu- den,|reumbt er auf|mit seim|Lei-|den, trotz|
 ^F4 F2 G2- | G2 G2 E2 F2 | G4 z2 c2- | c2 B2 A4 | G4 G4 | F8 | E4 z2 E2 | G4 G2 A2- | %26
w: cher mir sei-|* nen lie- ben|Sohn, Je-|* sum Christ|hat ge-|schen-|cket; lie-|bers war nicht|
w: dass ihm et-|* wa wie- der-|bell. Zu-|* tre- ten|ist die|Schlan-|ge, O|Herr, mein Seel|
 A2 B2 A2 G2 | A4 A4 | G4 G2 A2- | A2 A2 G2 G2 | ^F4 F4 | G6 F2 | E2 E2 D4 | E4 z2 A2 | %34
w: _ in sei- nem|Thron, lie-|bers war nicht|_ in sei- nem|Thron; hier-|an mein|Hertz ge- den-|cket, hier-|
w: _ ich dir be-|fehl, O|Herr mein Seel|_ ich dir be-|fehl, Gnad|ist bey|dir die Men-|ge, Gnad|
 A2 G2 G2 G2 | E8 | E8 |] %37
w: an mein Hertz ge-|den-|cket.|
w: ist bey dir die|Men-|ge.|
V:2
"^2)""^1)" E4 E4 | E2 D4 E2 | F2 G2 G4 | G2 G4 G2 | E2 F2 D4 | E4 z2 E2 | C2 B,2 E2 D2 | B,8 | %8
w: Ich weiss|dass mein Er-|lö- ser lebt,|ob ich schon|nie auff Er-|den, hab|Sünd ge- than und|ster-|
w: Zu dir|hab ich mein|Zu- ver- sicht|und wer- de|nicht be- tro-|gen. Sey|bey den un- er-|zoh-|
 C4 z2 E2 | E4 E2 D2- | D2 E2 F2 G2 | G4 G2 G2- | G2 G2 E2 F2 | D4 E4 | z2 E2 C2 B,2 | E4 D4 | %16
w: be, all'|mei- ne Fein-|* de sind er-|legt, nicht ei-|* ner kan mir|scha- den,|so grosz ist|Got- tes|
w: nen, auf|dass sie durch|_ dein Wort er-|leucht Chri- sten|_ wer- den und|blei- ben,|him- li- sche|Gu- ter|
 B,8 | C4 z2 E2 | D4 D2 D2- | D2 E2 C2 A,2 | B,2 A,G, G2 G2 | G4 F4 | D4 C4 | D8 | G,4 z2 C2 | %25
w: Gna-|de, wel-|ches mir sei-|* nen lie- ben|Sohn _ _ _ Je-|sum Christ|hat ge-|schen-|cket; lie-|
w: lie-|ben, se-|lig vol- len-|* den die- se|Zeit, _ _ _ sampt|den, so|dei- nen|Na-|men er-|
 E4 D2 F2- | F2 D2 E2 D2 | C4 F4 | D4 E2 E2- | E2 F2 D2 E2 | A,4 D4 | E4 D2 C2- | C2 C2 A,4 | %33
w: bers war nicht|_ in sei- nem|Thron, lie-|bers war nicht|_ in sei- nem|Thron; hier-|an mein Hertz|_ ge- den-|
w: ken- net und|_ in E- wig-|keit neu|dich an- schau|_ en, A- *|men, neu|dich an- schau-|* en, A-|
 A,4 z2 C2 | C2 E2 E2 D2 | C8 | B,8 |] %37
w: cket, hier-|an mein Hertz ge-|den-|cket.|
w: men, neu|dich an schau- en,|A-|men.|
V:3
"^3)""^1)" A4 c4 | B2 A4 B2 | c2 d2 e4 | e2 e4 d2 | c2 c2 B4 | c4 z2 c2 | e2 d2 c2 A2 | %7
w: Ich weiss|dass mein Er-|lö- ser lebt,|ob ich schon|nie auff Er-|den, hab|Sünd ge- than und|
 A2 ^G^F G4 | A4 z2 A2 | c4 B2 A2- | A2 B2 c2 d2 | e4 e2 e2- | e2 d2 c2 c2 | B4 c4 | z2 c2 e2 d2 | %15
w: ster- * * *|be, all'|mei- ne Fein-|* de sind er-|legt, nicht ei-|* ner kan mir|scha- den,|so grosz ist|
 c4 A2 A2- | A2 ^G^F G4 | A4 z2 c2 | A4 A2 B2- | B2 B2 c2 c2 | d4 e4 | e4 c4 | B4 G2 c2- | %23
w: Got- tes Gna-||de, wel-|ches mir sei-|* nen lie- ben|Sohn Je-|sum Christ|hat ge- schen-|
 c2 BA B4 | c4 z2 G2 | c4 B2 d2- | d2 G2 c2 B2 | A4 d4 | B4 B2 c2- | c2 d2 B2 c2 | d4 A4 | %31
w: |cket; lie-|bers war nicht|_ in sei- nem|Thron, lie-|bers war nicht|_ in sei- nem|Thron; hier-|
 c4 B2 A2- | A2 G2 F4 | E4 z2 e2 | e2 B2 c2 B2 | A8 | ^G8 |] %37
w: an mein Hertz|_ ge- den-|cket, hier-|an mein Hertz ge-|den-|cket.|
V:4
"^1)" A,4 A,4 | E,2 F,4 E,2 | A,2 G,2 C,4 | C,2 C,4 G,2 | A,2 F,2 G,4 | C,4 z2 C,2 | %6
w: Ich weiss|dass mein Er-|lö- ser lebt,|ob ich schon|nie auff Er-|den, hab|
 C,2 G,,2 C,2 D,2 | E,8 | A,,4 z2 A,2 | A,4 E,2 F,2- | F,2 E,2 A,2 G,2 | C,4 C,2 C,2- | %12
w: Sünd ge- than und|ster-|be, all'|mei- ne Fein|_ de sind er-|legt, nicht ei-|
 C,2 G,2 A,2 F,2 | G,4 C,4 | z2 C,2 C,2 G,,2 |"^-natural" C,4 D,4 | E,8 | A,,4 z2 A,,2 | %18
w: * ner kan mir|scha- den,|so grosz ist|Got- tes|Gna-|de, wel-|
 D,4 D,2 G,2- | G,2 E,2 A,2 A,2 | G,4 C,4 | E,4 F,4 | G,4 E,4 | D,8 | C,8 | z8 | z8 | z4 D,4 | %28
w: ches mir sei-|* nen lie- ben|Sohn Je-|sum Christ|hat ge-|schen-|cket;|||lie-|
 G,4 E,2 A,2- | A,2 D,2 G,2 E,2 | D,4 D,4 | C,4 G,,2 A,,2- | A,,2 C,2 D,4 | A,,4 z2 A,,2 | %34
w: bers war nicht|_ in sei- nem|Thron; hier-|an mein Hertz|_ ge- den-|cket, hier-|
 A,,2 E,2 C,2 G,,2 | A,,8 | E,8 |] %37
w: an mein Hertz ge-|den-|cket.|

